X: 14721
T: Gan Ainm
R: polka
M: 2/4
K: Cmajor
c/B/|:cE eG|ed/^c/ d2|dG Bd|c/B/c/d c/d/e/f/|
c'E eG|ed/^c/ d2|dG Bd|c/B/c/d c z:|
c'c c'/b/b/a/|ag/^f/ g2|gG g/f/e/d/|fe/^d/ e2|
c'c c'/b/b/a/|ag/^f/ g2|d/b/b/a/ a/g/g/f/|f/e/e/d/ c z||
ee Gc|e/d/^c/d/ de|ff Bd|c/B/c/d/ c/d/e/f/|
ee Gc|e/d/^c/d/ de|d/b/b/a/ a/g/g/f/|f/e/e/d/ c z||

